icon/pk/calculator.svg

<svg viewBox="0 0 48 48" fill="none" xmlns="http://www.w3.org/2000/svg" height="1em" width="1em">
  <path d="M40 4H8.0002C6.89565 4 6.00022 4.89541 6.0002 5.99996L5.99955 42C5.99953 43.1045 6.89497 44 7.99955 44H40C41.1046 44 42 43.1046 42 42V6C42 4.89543 41.1046 4 40 4Z" fill="#2F88FF" stroke="black" stroke-width="4" stroke-linejoin="round"/>
  <path d="M35 10H13V19H35V10Z" fill="#43CCF8" stroke="white" stroke-width="4" stroke-linejoin="round"/>
  <path d="M12 28L19 35" stroke="white" stroke-width="4" stroke-linecap="round" stroke-linejoin="round"/>
  <path d="M19 28L12 35" stroke="white" stroke-width="4" stroke-linecap="round" stroke-linejoin="round"/>
  <path d="M28 35H36" stroke="white" stroke-width="4" stroke-linecap="round" stroke-linejoin="round"/>
  <path d="M28 29H36" stroke="white" stroke-width="4" stroke-linecap="round" stroke-linejoin="round"/>
</svg>

<svg width="48" height="48" fill="none" xmlns="http://www.w3.org/2000/svg"><path d="M40 4H8a2 2 0 0 0-2 2v36a2 2 0 0 0 2 2h32a2 2 0 0 0 2-2V6a2 2 0 0 0-2-2Z" fill="#2F88FF" stroke="#000" stroke-width="4" stroke-linejoin="round"/><path d="M35 10H13v9h22v-9Z" fill="#43CCF8" stroke="#fff" stroke-width="4" stroke-linejoin="round"/><path d="m12 28 7 7M19 28l-7 7M28 35h8M28 29h8" stroke="#fff" stroke-width="4" stroke-linecap="round" stroke-linejoin="round"/></svg>
